svgs/sharp-regular/couch.svg

<svg xmlns="http://www.w3.org/2000/svg" viewBox="0 0 640 512"><!--! Font Awesome Pro 6.6.0 by @fontawesome - https://fontawesome.com License - https://fontawesome.com/license (Commercial License) Copyright 2024 Fonticons, Inc. --><path d="M528 80L112 80l0 112-48 0L64 80l0-48 48 0 416 0 48 0 0 48 0 112-48 0 0-112zM48 272l0 160 48 0 0-160-48 0zM0 224l48 0 48 0 48 0 0 48 0 16 352 0 0-16 0-48 48 0 48 0 48 0 0 48 0 160 0 48-48 0-48 0-48 0 0-32-352 0 0 32-48 0-48 0L0 480l0-48L0 272l0-48zM144 400l352 0 0-64-352 0 0 64zM592 272l-48 0 0 160 48 0 0-160z"/></svg>

<svg xmlns="http://www.w3.org/2000/svg" viewBox="0 0 640 512"><!--! Font Awesome Pro 6.5.2 by @fontawesome - https://fontawesome.com License - https://fontawesome.com/license (Commercial License) Copyright 2024 Fonticons, Inc. --><path d="M528 80H112V192H64V80 32h48H528h48V80 192H528V80zM48 272V432H96V272H48zM0 224H48 96h48v48 16H496V272 224h48 48 48v48V432v48H592 544 496V448H144v32H96 48 0V432 272 224zM144 400H496V336H144v64zM592 272H544V432h48V272z"/></svg>
